!!!OTL: 404. Das Buendnis.
!!!COM: Reichardt
!!!ARE: Europa, Mitteleuropa, Deutschland
!!!SCT: B0404B
!!!TXL: @@DE
!!!YEM: Copyright 1995, estate of Helmut Schaffrath.
**kern	**text
*ICvox	*
*Ivox	*
*M2/8	*
*clefG2	*
*k[]	*
*C:	*
=1	=1
!LO:TX:a:t=Lebhaft und leicht.	!
{8cc	Klei-
16bL	-ne
16ccJ	.
=2	=2
8dd	Blu-
8g	-men,
=3	=3
8ee	klei-
16ddL	-ne
16eeJ	.
=4	=4
8ff	Blät-
8dd}	-ter
=5	=5
{16ggL	ſtreu-
16aaJ	.
16ggL	-en
16ffJ	.
=6	=6
8ee	mir
8dd	mit
=7	=7
8cc	leich-
8dd	-ter
=8	=8
(8.eeL	Hand
16ff)}J	.
=9	=9
{16ggL	gu-
16aaL	.
16ggJ	-te,
16ffJ	.
=10	=10
8ee	jun-
8ff	-ge
=11	=11
16ggL	Früh-
16aaJ	.
16ggL	-lings-
16ffJ	.
=12	=12
8ee	-göt-
8ff}	-ter
=13	=13
{16ggL	tän-
16aaJ	.
16ggL	-delnd
16ffJ	.
=14	=14
8ee	auf
8dd	ein
=15	=15
8cc	luf-
(16eeqq	.
8dd)	-tig
=16	=16
8cc	Band.
8r}	.
==	==
!!!AGN: Liebes - Lied, Liebes - Lust
!!!GTL: Liebeslieder - Liebeslust
!!!ONB: ESAC (Essen Associative Code) Database: BOEHME
!!!AMT: simple duple
!!!AIN: vox
!!!EED: Helmut Schaffrath
!!!EEV: 1.0
!!@@COMMENT:"Die volksthümlich gewordene Mel. ſoll Karl Blum, Regiſſeur der königl. Oper in
!!Berlin um 1825 komponirt haben. 
!!Die Mel. von Reichardt in "Goethe's lyr. Gedichte kam nicht
!!ʒur Geltung. Das Curioſum ſieht ſo aus:"
!!Das Volk hat mit Benutʒung mehrerer Reimʒeilen aus Goethe's Gedicht ein recht hübſches
!!Volkslied ſich ʒurecht geſungen (ſ. daſſelbe im Liederh. JJ, S. 438*. Die obige Singweiſe
!!wurde ſpäter auch benutʒt ʒu dem Liede auf den Tod der Königin Luiſe 1810: "Wilhelm, komm'
!!an meine Seite" und lebt endlich noch ʒu dem Scherʒliede: "Jn der großen Seeſtadt
!!Leipʒig".
!!@@END:
!!!URL-scan: https://archive.org/details/BoehmeVtLieder1895/page/n333/mode/2up
!!!ENC: Anna Maria Matuszewska
!!!EEV: 2024/08/07
*-	*-
